icons/op-file-text-24.svg

<svg width="24" height="24" viewBox="0 0 24 24" fill="none" xmlns="http://www.w3.org/2000/svg">
<path d="M9.13706 11.9062H14.7716V12.875H9.13706V11.9062ZM9.16751 10H14.802V11H9.16751V10ZM9.16751 8.09375H14.802V9.09375H9.16751V8.09375ZM17.9695 7.6875L14.3756 4H6V20H18V7.6875H17.9695ZM7.40102 18.5625V5.4375H13.797L16.599 8.3125V18.5625H7.40102Z" fill="black"/>
<path d="M14.7715 13.9062H9.13696V14.875H14.7715V13.9062Z" fill="black"/>
<path d="M14.7715 15.9062H9.13696V16.875H14.7715V15.9062Z" fill="black"/>
</svg>

<svg xmlns="http://www.w3.org/2000/svg" width="24" height="24" viewBox="0 0 24 24"><path d="M9.137 11.906h5.635v.969H9.137v-.969ZM9.168 10h5.634v1H9.168v-1Zm0-1.906h5.634v1H9.168v-1Zm8.802-.406L14.376 4H6v16h12V7.688h-.03ZM7.401 18.562V5.438h6.396l2.802 2.874v10.25H7.401Z"/><path d="M14.771 13.906H9.137v.969h5.634v-.969Zm0 2H9.137v.969h5.634v-.969Z"/></svg>
